src/assets/icons/arrow-left.svg

<svg widh="100%" height="100%" viewBox="0 0 24 24" fill="current"
  xmlns="http://www.w3.org/2000/svg">
  <path fill-rule="evenodd" clip-rule="evenodd" d="M4 12C4 11.4477 4.44772 11 5 11H19C19.5523 11 20 11.4477 20 12C20 12.5523 19.5523 13 19 13H5C4.44772 13 4 12.5523 4 12Z"/>
  <path fill-rule="evenodd" clip-rule="evenodd" d="M12.7071 4.29289C13.0976 4.68342 13.0976 5.31658 12.7071 5.70711L6.41421 12L12.7071 18.2929C13.0976 18.6834 13.0976 19.3166 12.7071 19.7071C12.3166 20.0976 11.6834 20.0976 11.2929 19.7071L4.29289 12.7071C3.90237 12.3166 3.90237 11.6834 4.29289 11.2929L11.2929 4.29289C11.6834 3.90237 12.3166 3.90237 12.7071 4.29289Z"/>
</svg>

<svg xmlns="http://www.w3.org/2000/svg" fill="currentColor" viewBox="0 0 24 24">
  <path fill-rule="evenodd" d="M4 12a1 1 0 0 1 1-1h14a1 1 0 1 1 0 2H5a1 1 0 0 1-1-1Z" clip-rule="evenodd"/>
  <path fill-rule="evenodd" d="M12.707 4.293a1 1 0 0 1 0 1.414L6.414 12l6.293 6.293a1 1 0 0 1-1.414 1.414l-7-7a1 1 0 0 1 0-1.414l7-7a1 1 0 0 1 1.414 0Z" clip-rule="evenodd"/>
</svg>
